X:429
T: ES KANN JA NICHT IMMER SO BLEIBEN
N: E0353B
O: Europa, Mitteleuropa, Deutschland, Schleswig
R: historisches Lied, Krieg, Soldaten (1813 und 1870)
M: 4/4
L: 1/16
K: F
C4 | A4A3GF4d3c | c2B2G4z4
G2A2 | B4B2B2d4c2B2 | c8z4
F4 | d4d2d2f4e2d2 | d2c2c4z4
c2f2 | f4A2c2c4B2G2 | F8z4
F4 | d4d2d2f4e2d2 | d2c2c4z4
c2f2 | f4A2c2c4B2G2 | F8z4

@@@ Tune index: 4079
